icons/editor/kerning.svg

<svg width="32" height="32" viewBox="0 0 32 32" fill="none" xmlns="http://www.w3.org/2000/svg">
<path fill-rule="evenodd" clip-rule="evenodd" d="M12.0564 20.6685L18.5564 2.16852L20.4433 2.83149L13.9433 21.3315L12.0564 20.6685ZM21.8474 13L23.9998 6.97322L26.1523 13H21.8474ZM21.1331 15L19.9416 18.3363L18.0581 17.6637L23.0581 3.66367H24.9416L29.9416 17.6637L28.0581 18.3363L26.8666 15H21.1331ZM15.7927 24.2929L15.0856 25L15.7927 25.7071L19.7927 29.7071L21.207 28.2929L18.9138 25.9998L30.0001 25.9998L30.0001 23.9998L18.9143 23.9998L21.207 21.7071L19.7927 20.2929L15.7927 24.2929ZM3.05811 4.33634L8.05811 18.3363H9.94159L14.9416 4.33634L13.0581 3.66367L8.99985 15.0268L4.94159 3.66367L3.05811 4.33634Z" fill="black"/>
</svg>

<svg width="32" height="32" viewBox="0 0 32 32" xmlns="http://www.w3.org/2000/svg">
    <path fill-rule="evenodd" d="M12.056 20.669l6.5-18.5 1.887.662-6.5 18.5-1.887-.662zM21.847 13L24 6.973 26.152 13h-4.305zm-.714 2l-1.191 3.336-1.884-.672 5-14h1.884l5 14-1.884.672L26.867 15h-5.734zm-5.34 9.293l-.707.707.707.707 4 4 1.414-1.414L18.914 26H30v-2H18.914l2.293-2.293-1.414-1.414-4 4zM3.058 4.336l5 14h1.884l5-14-1.884-.672L9 15.027 4.942 3.664l-1.884.672z"/>
</svg>
